X:3314
T:Kitty Come Over
O:england
R:double jig
M:6/8
L:1/8
K:G
A|B2A BGD|EGG GBd|ege dBA|BAA ABc|
B2A BGD|EGG GBd|ege dBA|BGG G2:|
e/f/|g2g efg|efg fed|g2g dBA|BAA ABc|
B2A BGD|EGG GBd|ege dBA|BGG G2:|
